!!!COM: Charles Gounod
!!!CNT: Francais
!!!TXO: Francais
!!!OTL: Les Nai2des
!!!LYR: Franc5ois Ponsard
!!!ODT: 1865/ (?)
!!!ENC: Jacob Pegg
!!!YOR: Romantic French Song 1830-1870 -David Tunley, ed.,
!!!YOR: New York: Garland Publishing, Inc., 1995, Vol. 5
!!NB: Vocal melody and text only encoded.
!!NB: First instance of melodic material only encoded.
**kern	**silbe
*clef G2	*
*k[b-]	*
*M2/4	*
*MM[allegretto]	*
!!created: 6/17/03 20:47
!!proofed and posted: 7/21/03 23:55
=8	=8
8r	.
{8cc	{Le
8cc	so-
8cc	-leil
=9	=9
4.ff	mon
8cc	-te et
=10	=10
4cc	bru^-
8b-}	-le}
{8g	{Le
=11	=11
4f	sab-
(8g	-le au
8b-)	|
=12	=12
(8a	bord
8cc)	|
(8b-	des
8g)	|
=13	=13
[2cc	mers,
=14	=14
2cc]}	|}
=15	=15
4r	.
{4cc	{Bru^-
=16	=16
4a	-le
4ee	le
=17	=17
4dd	sable
(8ee	au
8cc)	|
=18	=18
(8a	bord
8cc)	|
(8bn	des
8g)	|
=19	=19
[2cc	mers,
=20	=20
2cc_	|
=21	=21
4cc]}	|}
4r	.
=22	=22
2r	.
=23	=23
4r	.
4r	.
=24	=24
4r	.
{4cc	{L'ar-
=25	=25
(4ff	-den-
[4cc)	|
=26	=26
8cc]	|
8cc	-te
8b-	ca-
8g	-ni-
=27	=27
4f	-cu-
4c}	-le}
=28	=28
4r	.
{(8g	{Fle/-
8b-)	|
=29	=29
4a	-trit
(8g	les
8b-)	|
=30	=30
(8a	ga-
8cc)	|
(8b-	-zons
8g)	|
=31	=31
[2cc	verts
=32	=32
2cc]}	|}
!!33-40 like 15-23
=41	=41
4r	.
8r	.
{8f	{Fu-
=42	=42
8f	-yons
8b-	o^
8cc	ma
8ee-	com-
=43	=43
8dd	-pa-
8ff}	-gne!}
8r	.
8r	.
!!44-45 like prior 2
=45	=45
4r	.
8r	.
{8a	{Fu-
=46	=46
4g}	-yons,}
8r	.
{8a	{fu-
=47	=47
4g}	-yons}
8r	.
{8a	{la
=48	=48
8b-	cha-
8dd	-leur
8cc	qui
8a	nous
=49	=49
(8a	ga-
8b-)	|
4g}	-gne}
=50	=50
8r	.
{8g	{Au
8f	pied
8b-	de
=51	=51
8a	la
8dd	mon-
(16cc	-ta-
16b-)	|
8a}	-gne}
=52	=52
8r	.
{8b-	{Ou\
8a	dans
8dd	les
=53	=53
8cc	ruis-
8gg	-seaux
4ff}	clairs}
=54	=54
{(16cc	{Dans
16dd	|
4ee)	|
8a	les
=55	=55
(16b-	ruis-
16cc	|
4dd)	|
8g	-seaux
=56	=56
(16a	clairs
16b-	|
8cc)	|
8dd	dans
8ff	les
=57	=57
[4f	clairs
8f]}	|}
8r	.
!!58-87 repeat material
=87	=87
8r	.
{8g	{Fu-
4g	-yons,
=88	=88
8r	.
8a	fu-
4a	-yons
=89	=89
8r	.
8g	vers
8g	la
8g	mon-
=90	=90
4a	-ta-
4cc}	-gne}
=91	=91
4r	.
{8dd	{Ou\
8r	.
=92	=92
8cc	dans
8r	.
8dd	les
8r	.
=93	=93
8cc	ruis-
8r	.
8dd	-seaux
8r	.
=94	=94
[2ff	clairs
=95	=95
2ff_	|
=96	=96
8ff]}	|}
8r	.
4r	.
*-	*-
